X:34
T:Fall of Foyers, The
T:Eas-na-Sm\`uid
R:Slow Air
S:Simon Fraser Collection
N:No.193
N:transposed from C
O:Scottish
M:C
L:1/8
Q:1/4=80
K:D
D/>E/|FF F>d (B/A/)G/F/ A/(G/F/E/)|FF d>c B2 BD/E/|
FF d>e f/>d/(e/c/) d/A/F/D/|(B/A/)G/F/ d>F FEE:|
b|a<f b>f aff(d'/b/)|a<f d'>c' b2 ~b(c'/d'/)|a<f b>f a<f f>e|d>B (B/A/)G/F/ FEEb|
a<f b>f affd'/>b/|af d'/>c'/d'/e'/ f'e'e'(d'/e'/)|f'd'/f'/ e'c'/e'/ d'a/d'/
(b/a/)g/f/|
g/f/e/d/ c/B/A/G/ FEE||
